X:1
T:Jim Clark's -- Hornpipe
Z:Bob Puckette <bpuckette:msn.com> 2003-3-10
R:hornpipe
B:Cole's 1000 Fiddle Tunes
M:2/4
L:1/16
K:D
((3uABc)|.d2(AG) FDFA|BGBd cAce|fdge afed|.c2.e2 egfe|
.d2(AG) FDFA|BGBd cAce|dbag fgec|d2f2d2:|
|:((3uefg)|.a2(fd) Adfa|.g2(ec) Aceg|fafd Bged|cedB Agfe|
.d2(AG) FDFA|BGBd cAce|dbag fedc|d2f2d2:|
